icons/2_Variations/axe bg.var.svg

<svg width="1024" height="1024" viewBox="0 0 1024 1024" fill="none" xmlns="http://www.w3.org/2000/svg">
<g clip-path="url(#clip0_3_8)">
<path d="M512 1024C794.77 1024 1024 794.77 1024 512C1024 229.23 794.77 0 512 0C229.23 0 0 229.23 0 512C0 794.77 229.23 1024 512 1024Z" fill="#728DBE"/>
<path d="M737 628.72C725.57 623.651 712.597 623.318 700.922 627.793C689.247 632.269 679.822 641.189 674.71 652.6C674.325 653.514 673.991 654.449 673.71 655.4H315.87L515 310.44L663.8 566.6L692.15 550.15L514.9 245L259 688.21H673.69C675.863 694.102 679.195 699.498 683.489 704.081C687.783 708.663 692.952 712.339 698.69 714.89C704.688 717.603 711.197 719.004 717.78 719C728.586 718.996 739.063 715.283 747.46 708.482C755.857 701.682 761.666 692.205 763.916 681.636C766.166 671.067 764.721 660.046 759.822 650.415C754.923 640.784 746.867 633.125 737 628.72ZM738.4 681.04C736.755 684.752 734.138 687.952 730.825 690.3C727.513 692.648 723.627 694.057 719.579 694.379C715.532 694.701 711.472 693.924 707.83 692.129C704.187 690.334 701.097 687.589 698.886 684.183C696.675 680.778 695.426 676.838 695.269 672.78C695.112 668.723 696.054 664.698 697.996 661.132C699.937 657.566 702.806 654.59 706.299 652.52C709.792 650.45 713.78 649.361 717.84 649.37C720.975 649.357 724.077 650.011 726.94 651.29C729.654 652.476 732.105 654.188 734.154 656.327C736.202 658.466 737.807 660.989 738.875 663.751C739.943 666.513 740.454 669.46 740.377 672.42C740.301 675.381 739.639 678.297 738.43 681L738.4 681.04ZM507.4 623.74H483.32V609.12C476.85 620.93 463.37 626.79 449.2 626.79C416.74 626.79 397.67 601.51 397.67 572.9C397.67 540.97 420.77 519.18 449.2 519.18C467.66 519.18 478.95 528.98 483.32 537.11V522.33H507.47L507.4 623.74ZM421.9 573.51C421.9 586.02 430.9 604.31 452.7 604.31C466.17 604.31 475.01 597.31 479.65 588.04C481.921 583.642 483.233 578.812 483.5 573.87C483.716 568.991 482.756 564.131 480.7 559.7C476.41 550.08 467.05 541.77 452.44 541.77C432.84 541.77 421.82 557.61 421.82 573.35V573.52L421.9 573.51ZM557.5 570.36L523.38 522.42H552.51L572.28 553.57L592.05 522.42H620.83L586.9 570.36L624.69 623.73H594.95L572.29 588.82L549.37 623.73H520.06L557.5 570.36Z" fill="white"/>
</g>
<defs>
<clipPath id="clip0_3_8">
<rect width="1024" height="1024" fill="white"/>
</clipPath>
</defs>
</svg>

<svg xmlns="http://www.w3.org/2000/svg" viewBox="0 0 1024 1024">
   <circle cx="512" cy="512" r="512" style="fill:#0077c8"/>
   <path d="M737 628.72a47.26 47.26 0 0 0-62.29 23.88 26.48 26.48 0 0 0-1 2.8H315.87L515 310.44 663.8 566.6l28.35-16.45L514.9 245 259 688.21h414.69a47 47 0 0 0 25 26.68 46.26 46.26 0 0 0 19.09 4.11A47.19 47.19 0 0 0 737 628.72Zm1.4 52.32a22.54 22.54 0 1 1-20.56-31.67 22.09 22.09 0 0 1 9.1 1.92A22.43 22.43 0 0 1 738.43 681Zm-231-57.3h-24.08v-14.62c-6.47 11.81-19.95 17.67-34.12 17.67-32.46 0-51.53-25.28-51.53-53.89 0-31.93 23.1-53.72 51.53-53.72 18.46 0 29.75 9.8 34.12 17.93v-14.78h24.15Zm-85.5-50.23c0 12.51 9 30.8 30.8 30.8 13.47 0 22.31-7 26.95-16.27a35 35 0 0 0 3.85-14.17 30.47 30.47 0 0 0-2.8-14.17c-4.29-9.62-13.65-17.93-28.26-17.93-19.6 0-30.62 15.84-30.62 31.58v.17Zm135.6-3.15-34.12-47.94h29.13l19.77 31.15 19.77-31.15h28.78l-33.93 47.94 37.79 53.37h-29.74l-22.66-34.91-22.92 34.91h-29.31Z" style="fill:#fff"/>
</svg>
